flaticon/army-badges/target-2.svg

<svg xmlns="http://www.w3.org/2000/svg" width="32" height="32" viewBox="0 0 24 24">
    <path d="M 12 0 C 5.398438 0 0 5.359375 0 12 C 0 18.640625 5.398438 24 12 24 C 18.601562 24 24 18.601562 24 12 C 24 5.398438 18.601562 0 12 0 Z M 12 23.199219 C 5.839844 23.199219 0.800781 18.160156 0.800781 12 C 0.800781 5.839844 5.839844 0.800781 12 0.800781 C 18.160156 0.800781 23.199219 5.839844 23.199219 12 C 23.199219 18.160156 18.160156 23.199219 12 23.199219 Z M 12 23.199219"/>
    <path d="M 12 1.601562 C 6.28125 1.601562 1.601562 6.28125 1.601562 12 C 1.601562 17.761719 6.28125 22.398438 12 22.398438 C 17.71875 22.398438 22.398438 17.761719 22.398438 12 C 22.398438 6.28125 17.71875 1.601562 12 1.601562 Z M 12 21.601562 C 6.71875 21.601562 2.398438 17.28125 2.398438 12 C 2.398438 6.71875 6.71875 2.398438 12 2.398438 C 17.28125 2.398438 21.601562 6.71875 21.601562 12 C 21.601562 17.28125 17.28125 21.601562 12 21.601562 Z M 12 21.601562"/>
    <path d="M12 14.800781C11.761719 14.800781 11.601562 14.960938 11.601562 15.199219L11.601562 19.199219C11.601562 19.441406 11.761719 19.601562 12 19.601562 12.238281 19.601562 12.398438 19.441406 12.398438 19.199219L12.398438 15.199219C12.398438 14.960938 12.238281 14.800781 12 14.800781zM12 9.199219C12.238281 9.199219 12.398438 9.039062 12.398438 8.800781L12.398438 4.800781C12.398438 4.558594 12.238281 4.398438 12 4.398438 11.761719 4.398438 11.601562 4.558594 11.601562 4.800781L11.601562 8.800781C11.601562 9.039062 11.761719 9.199219 12 9.199219zM8.800781 11.601562L4.800781 11.601562C4.558594 11.601562 4.398438 11.761719 4.398438 12 4.398438 12.238281 4.558594 12.398438 4.800781 12.398438L8.800781 12.398438C9.039062 12.398438 9.199219 12.238281 9.199219 12 9.199219 11.761719 9.039062 11.601562 8.800781 11.601562zM19.199219 11.601562L15.199219 11.601562C14.960938 11.601562 14.800781 11.761719 14.800781 12 14.800781 12.238281 14.960938 12.398438 15.199219 12.398438L19.199219 12.398438C19.441406 12.398438 19.601562 12.238281 19.601562 12 19.601562 11.761719 19.441406 11.601562 19.199219 11.601562zM12 11.199219C11.558594 11.199219 11.199219 11.558594 11.199219 12 11.199219 12.441406 11.558594 12.800781 12 12.800781 12.441406 12.800781 12.800781 12.441406 12.800781 12 12.800781 11.558594 12.441406 11.199219 12 11.199219zM12 11.199219"/>
</svg>

<svg xmlns="http://www.w3.org/2000/svg" width="32" height="32" viewBox="0 0 24 24">
    <path d="M12 0C5.398 0 0 5.36 0 12s5.398 12 12 12 12-5.398 12-12S18.602 0 12 0zm0 23.2C5.84 23.2.8 18.16.8 12 .8 5.84 5.84.8 12 .8 18.16.8 23.2 5.84 23.2 12c0 6.16-5.04 11.2-11.2 11.2zm0 0"/>
    <path d="M12 1.602C6.281 1.602 1.602 6.282 1.602 12c0 5.762 4.68 10.398 10.398 10.398 5.719 0 10.398-4.636 10.398-10.398 0-5.719-4.68-10.398-10.398-10.398zm0 20c-5.281 0-9.602-4.32-9.602-9.602 0-5.281 4.32-9.602 9.602-9.602 5.281 0 9.602 4.32 9.602 9.602 0 5.281-4.32 9.602-9.602 9.602zm0 0"/>
    <path d="M12 14.8c-.238 0-.398.16-.398.4v4c0 .241.16.402.398.402.238 0 .398-.16.398-.403v-4c0-.238-.16-.398-.398-.398zm0 0M12 9.2c.238 0 .398-.16.398-.4v-4c0-.241-.16-.402-.398-.402-.238 0-.398.16-.398.403v4c0 .238.16.398.398.398zm0 0M8.8 11.602h-4c-.241 0-.402.16-.402.398 0 .238.16.398.403.398h4c.238 0 .398-.16.398-.398 0-.238-.16-.398-.398-.398zm0 0M19.2 11.602h-4c-.24 0-.4.16-.4.398 0 .238.16.398.4.398h4c.241 0 .402-.16.402-.398 0-.238-.16-.398-.403-.398zm0 0M12 11.2a.802.802 0 0 0 0 1.6.802.802 0 0 0 0-1.6zm0 0"/>
</svg>
